X:1
T:My High Tower
T:My High Tower
T:Philip Paul Bliss
T:Philip Paul Bliss, 1876
T:Public Domain Courtesy of the Cyber Hymnal™
C:Philip Paul Bliss
Z:Public Domain
Z:Courtesy of the Cyber Hymnal™
%%score ( 1 2 ) ( 3 4 )
L:1/8
Q:1/4=115
M:4/4
K:Ab
V:1 treble 
V:2 treble 
V:3 bass 
V:4 bass 
V:1
 [CA]2 | [Ec]2 [Ec]2 [Fd]2 [DB]2 | [Ec]4 [EA]2 ([EG][FA]) | [GB]2 [GB]2 [Ac]2 [AB]2 | (B2 e4) d2 | %5
w: 1.~In|Zi- on’s rock a-|bid- ing, My *|soul her tri- umph|sings; * In|
w: 2.~Wild|waves are round me|swell- ing, Dark *|clouds a- bove I|see; * Yet,|
w: 3.~My|tower of strength can|ne- ver In *|time of trou- ble|fail; * No|
 [Ec]2 [Ec]2 [Fd]2 [DB]2 | [Ec]4 [EA]2 [FA]2 | [FB]2 [Bd]2 [Ac]3 [GB] | A6 ||"^Refrain" [Ac]2 | %10
w: His pa- vil- ion|hid- ing, I|praise the King of|kings.||
w: in my for- tress|dwell- ing, More|safe I can- not|be.|My|
w: power of hell, for-|ev- er, A-|gainst it shall pre-|vail.||
 e4 [Be]2 [Ge]2 | (e2 c4) [Ec]2 | [Ac]4 [AB]2 A2 | ([Ac]2 [GB]4) [Gc]2 | [FA]2 [FA]2 [GB]2 [Ac]2 | %15
w: |||||
w: high tower is|He! * To|Him will I|flee; * In|Him con- fide, in|
w: |||||
 [Ad]2 [Af]2 [Ae]2 [Ac]2 | [Ae]4 [Ac]2 [GB]2 | A6 |] %18
w: |||
w: Him a- bide; My|high tower is|He!|
w: |||
V:2
 x2 | x8 | x8 | x8 | G6 (FE) | x8 | x8 | x8 | A6 || x2 | (G2 A2) x4 | A6 x2 | x6 A2 | x8 | x8 | %15
 x8 | x8 | A6 |] %18
V:3
 A,2 | A,2 A,2 A,2 A,2 | A,4 [A,,C]2 [E,E]2 | [E,E]2 [E,E]2 [E,E]2 [E,E]2 | (E2 B,4) B,2 | %5
 A,2 A,2 A,2 A,2 | A,4 [A,,C]2 [F,C]2 | [D,D]2 [B,,F]2 [E,E]3 [E,D] | [A,,C]6 || [A,C]2 | %10
 (B,2 C2) [E,D]2 [E,B,]2 | (C2 E4) [A,E]2 | [A,E]4 [A,D]2 [A,C]2 | [F,E]6 [E,D]2 | %14
 [F,C]2 [F,C]2 [E,E]2 E2 | [F,D]2 [D,D]2 [C,A,]2 [F,A,]2 | [E,C]4 [E,E]2 [E,D]2 | [A,,C]6 |] %18
V:4
 A,2 | A,2 A,2 A,2 A,2 | A,4 x4 | x8 | E,6 (F,G,) | A,2 A,2 A,2 A,2 | A,4 x4 | x8 | x6 || x2 | %10
 E,4 x4 | A,6 x2 | x8 | x8 | x6 (A,_G,) | x8 | x8 | x6 |] %18

